X: 4157
M: C|
L: 1/8
K: D
|:\
dgfe dBAB | dBAF E3c  |\
dgfe dBAB | dBAF D2D2 ::\
abaf abaf | gebe gebe |\
abaf abaf | edef d2D2 :|


